X:94
M:6/8
L:1/8
K:Bb
fdb {a}g2f|ecB {B}A2B|cde fga|bfd "tr"c3|fdb {a}g2f|gcB AGF|GAB cde|
fdc "tr"B3::(3f/e/d/cc "tr"=B2c|c(G/F/E/D/) C2d|(3e/d/c/BB "tr"A2B|

